build/img/logo@mobile.svg

<svg xmlns="http://www.w3.org/2000/svg" xmlns:xlink="http://www.w3.org/1999/xlink" width="129pt" height="22pt" viewBox="0 0 129 22" version="1.1">
<g id="surface1">
<path style=" stroke:none;fill-rule:nonzero;fill:rgb(100%,100%,100%);fill-opacity:1;" d="M 0 22 L 0 0 L 21.621094 0 L 21.621094 4.03125 L 4.03125 4.03125 L 4.03125 18.699219 L 19.421875 18.699219 L 38.113281 0 L 43.609375 0 L 21.621094 22 Z M 46.175781 22 L 32.984375 22 L 30.785156 19.800781 L 30.785156 16.5 L 32.984375 14.300781 L 46.175781 14.300781 L 46.175781 16.5 L 33.351562 16.5 L 33.351562 19.800781 L 46.175781 19.800781 Z M 46.175781 22 "/>
<path style=" stroke:none;fill-rule:evenodd;fill:rgb(100%,100%,100%);fill-opacity:1;" d="M 46.910156 19.800781 L 46.910156 16.5 L 49.109375 14.300781 L 59.734375 14.300781 L 61.933594 16.5 L 61.933594 19.800781 L 59.734375 22 L 49.109375 22 Z M 49.109375 16.132812 L 49.109375 20.53125 L 59.734375 20.53125 L 59.734375 16.132812 Z M 49.109375 16.132812 "/>
<path style=" stroke:none;fill-rule:nonzero;fill:rgb(100%,100%,100%);fill-opacity:1;" d="M 62.667969 16.5 L 64.867188 14.300781 L 75.128906 14.300781 L 77.328125 16.5 L 77.328125 22 L 75.492188 22 L 75.492188 16.132812 L 70.730469 16.132812 L 70.730469 22 L 68.898438 22 L 68.898438 16.132812 L 64.5 16.132812 L 64.5 22 L 62.667969 22 Z M 85.023438 22 L 77.328125 14.300781 L 79.890625 14.300781 L 85.757812 20.167969 L 91.617188 14.300781 L 94.550781 14.300781 L 86.855469 22 Z M 95.652344 14.300781 L 95.652344 22 L 97.117188 22 L 97.117188 14.300781 Z M 100.046875 22 L 113.242188 22 L 113.242188 20.167969 L 100.414062 20.167969 L 100.414062 16.132812 L 113.242188 16.132812 L 113.242188 14.300781 L 100.046875 14.300781 L 97.847656 16.5 L 97.847656 19.800781 Z M 116.171875 14.300781 L 113.972656 15.398438 L 113.972656 17.96875 L 116.171875 19.066406 L 126.800781 19.066406 L 126.800781 20.167969 L 113.972656 20.167969 L 113.972656 22 L 126.800781 22 L 129 20.898438 L 129 18.332031 L 126.800781 17.234375 L 115.808594 17.234375 L 115.808594 16.132812 L 129 16.132812 L 129 14.300781 Z M 116.171875 14.300781 "/>
</g>
</svg>

<svg xmlns="http://www.w3.org/2000/svg" width="172" height="22pt" viewBox="0 0 129 22"><g fill="#fff"><path d="M0 22V0h21.621v4.031H4.031V18.7h15.39L38.114 0h5.496L21.621 22zm46.176 0H32.984l-2.199-2.2v-3.3l2.2-2.2h13.19v2.2H33.353v3.3h12.824zm0 0"/><path d="M46.91 19.8v-3.3l2.2-2.2h10.624l2.2 2.2v3.3l-2.2 2.2H49.11zm2.2-3.667v4.398h10.624v-4.398zm0 0" fill-rule="evenodd"/><path d="M62.668 16.5l2.2-2.2h10.26l2.2 2.2V22h-1.836v-5.867H70.73V22h-1.832v-5.867H64.5V22h-1.832zM85.023 22l-7.695-7.7h2.563l5.867 5.868 5.86-5.867h2.933L86.855 22zm10.63-7.7V22h1.464v-7.7zm4.394 7.7h13.195v-1.832h-12.828v-4.035h12.828V14.3h-13.195l-2.2 2.199v3.3zm16.125-7.7l-2.2 1.098v2.57l2.2 1.098H126.8v1.102h-12.828V22H126.8l2.2-1.102v-2.566l-2.2-1.098h-10.99v-1.101H129V14.3zm0 0"/></g></svg>
